apps/symbolic/accessories-calculator-symbolic.svg

<svg xmlns="http://www.w3.org/2000/svg" viewBox="0 0 16 16"><title>elementary Symbolic Icon Theme</title><path d="M2.03 0c-.54 0-1 .33-1 .938v14.124c0 .587.378.938 1 .938h13.032c.52 0 .938-.35.938-.94V.935a.91.91 0 0 0-.938-.94H2.032zM3 2.03h11.03V5H3V2.03zM3.188 6h1.625c.11 0 .187.08.187.19v1.625c0 .1-.077.18-.188.18H3.187A.18.18 0 0 1 3 7.805V6.18c0-.1.077-.18.188-.18zm3 0h1.625c.11 0 .187.08.187.19v1.625c0 .1-.077.18-.188.18H6.187A.18.18 0 0 1 6 7.805V6.18c0-.1.077-.18.188-.18zm3 0h1.625c.11 0 .187.08.187.19v1.625c0 .1-.077.18-.188.18H9.187A.18.18 0 0 1 9 7.805V6.18c0-.1.077-.18.188-.18zm3 0h1.625c.11 0 .187.08.187.19v1.625c0 .1-.077.18-.188.18h-1.625a.18.18 0 0 1-.187-.19V6.18c0-.1.077-.18.188-.18zm-9 3h1.625c.11 0 .187.08.187.19v1.625c0 .1-.077.18-.188.18H3.187a.18.18 0 0 1-.187-.19V9.18c0-.1.077-.18.188-.18zm3 0h1.625c.11 0 .187.08.187.19v1.625c0 .1-.077.18-.188.18H6.187a.18.18 0 0 1-.187-.19V9.18c0-.1.077-.18.188-.18zm3 0h1.625c.11 0 .187.08.187.19v1.625c0 .1-.077.18-.188.18H9.187a.18.18 0 0 1-.187-.19V9.18c0-.1.077-.18.188-.18zm3 0h1.625c.11 0 .187.08.187.19v1.625c0 .1-.077.18-.188.18h-1.625a.18.18 0 0 1-.187-.19V9.18c0-.1.077-.18.188-.18zm-9 3h1.625c.11 0 .187.08.187.19v1.625c0 .1-.077.18-.188.18H3.187a.18.18 0 0 1-.187-.19V12.18c0-.1.077-.18.188-.18zm3 0h1.625c.11 0 .187.08.187.19v1.625c0 .1-.077.18-.188.18H6.187a.18.18 0 0 1-.187-.19V12.18c0-.1.077-.18.188-.18zm3 0h1.625c.11 0 .187.08.187.19v1.625c0 .1-.077.18-.188.18H9.187a.18.18 0 0 1-.187-.19V12.18c0-.1.077-.18.188-.18zm3 0h1.625c.11 0 .187.08.187.19v1.625c0 .1-.077.18-.188.18h-1.625a.18.18 0 0 1-.187-.19V12.18c0-.1.077-.18.188-.18z" fill="#bebebe"/></svg>

<?xml version="1.0" encoding="UTF-8" standalone="no"?>
<svg
   xmlns:dc="http://purl.org/dc/elements/1.1/"
   xmlns:cc="http://creativecommons.org/ns#"
   xmlns:rdf="http://www.w3.org/1999/02/22-rdf-syntax-ns#"
   xmlns:svg="http://www.w3.org/2000/svg"
   xmlns="http://www.w3.org/2000/svg"
   version="1.1"
   width="16"
   height="16"
   id="svg7384">
  <title
     id="title9167">elementary Symbolic Icon Theme</title>
  <defs
     id="defs10" />
  <metadata
     id="metadata90">
    <rdf:RDF>
      <cc:Work
         rdf:about="">
        <dc:format>image/svg+xml</dc:format>
        <dc:type
           rdf:resource="http://purl.org/dc/dcmitype/StillImage" />
        <dc:title>elementary Symbolic Icon Theme</dc:title>
      </cc:Work>
    </rdf:RDF>
  </metadata>
  <path
     d="m 2.031,0 c -0.54216,0 -1,0.32904 -1,0.9375 v 14.125 c 0,0.58636 0.37667,0.9375 1,0.9375 H 15.062 C 15.583,16 16,15.65 16,15.06 V 0.935 c 0,-0.54 -0.395,-0.94 -0.938,-0.94 H 2.031 z M 3,2.03 H 14.031 V 4.9988 H 3 v -2.97 z M 3.188,6 H 4.813 C 4.923,6 5,6.08 5,6.19 v 1.625 c 0,0.1 -0.077,0.18 -0.188,0.18 H 3.187 C 3.077,7.995 3,7.915 3,7.805 V 6.18 C 3,6.08 3.077,6 3.188,6 z m 3,0 H 7.813 C 7.923,6 8,6.08 8,6.19 v 1.625 c 0,0.1 -0.077,0.18 -0.188,0.18 H 6.187 C 6.077,7.995 6,7.915 6,7.805 V 6.18 C 6,6.08 6.077,6 6.188,6 z m 3,0 h 1.625 C 10.923,6 11,6.08 11,6.19 v 1.625 c 0,0.1 -0.077,0.18 -0.188,0.18 H 9.187 C 9.077,7.995 9,7.915 9,7.805 V 6.18 C 9,6.08 9.077,6 9.188,6 z m 3,0 h 1.625 C 13.923,6 14,6.08 14,6.19 v 1.625 c 0,0.1 -0.077,0.18 -0.188,0.18 H 12.187 C 12.077,7.995 12,7.915 12,7.805 V 6.18 C 12,6.08 12.077,6 12.188,6 z m -9,3 H 4.813 C 4.923,9 5,9.08 5,9.19 v 1.625 c 0,0.1 -0.077,0.18 -0.188,0.18 H 3.187 C 3.077,10.995 3,10.915 3,10.805 V 9.18 C 3,9.08 3.077,9 3.188,9 z m 3,0 H 7.813 C 7.923,9 8,9.08 8,9.19 v 1.625 c 0,0.1 -0.077,0.18 -0.188,0.18 H 6.187 C 6.077,10.995 6,10.915 6,10.805 V 9.18 C 6,9.08 6.077,9 6.188,9 z m 3,0 h 1.625 C 10.923,9 11,9.08 11,9.19 v 1.625 c 0,0.1 -0.077,0.18 -0.188,0.18 H 9.187 C 9.077,10.995 9,10.915 9,10.805 V 9.18 C 9,9.08 9.077,9 9.188,9 z m 3,0 h 1.625 C 13.923,9 14,9.08 14,9.19 v 1.625 c 0,0.1 -0.077,0.18 -0.188,0.18 H 12.187 C 12.077,10.995 12,10.915 12,10.805 V 9.18 C 12,9.08 12.077,9 12.188,9 z m -9,3 H 4.813 C 4.923,12 5,12.08 5,12.19 v 1.625 c 0,0.1 -0.077,0.18 -0.188,0.18 H 3.187 C 3.077,13.995 3,13.915 3,13.805 V 12.18 C 3,12.08 3.077,12 3.188,12 z m 3,0 H 7.813 C 7.923,12 8,12.08 8,12.19 v 1.625 c 0,0.1 -0.077,0.18 -0.188,0.18 H 6.187 C 6.077,13.995 6,13.915 6,13.805 V 12.18 C 6,12.08 6.077,12 6.188,12 z m 3,0 h 1.625 C 10.923,12 11,12.08 11,12.19 v 1.625 c 0,0.1 -0.077,0.18 -0.188,0.18 H 9.187 C 9.077,13.995 9,13.915 9,13.805 V 12.18 C 9,12.08 9.077,12 9.188,12 z m 3,0 h 1.625 C 13.923,12 14,12.08 14,12.19 v 1.625 c 0,0.1 -0.077,0.18 -0.188,0.18 H 12.187 C 12.077,13.995 12,13.915 12,13.805 V 12.18 C 12,12.08 12.077,12 12.188,12 z"
     id="rect5122-3-5"
     style="fill:#bebebe" />
</svg>
